svg/logo/line_app_fill.svg

<?xml version="1.0" encoding="UTF-8"?>
<svg width="24px" height="24px" viewBox="0 0 24 24" version="1.1" xmlns="http://www.w3.org/2000/svg" xmlns:xlink="http://www.w3.org/1999/xlink">
    <title>line_app_fill</title>
    <g id="页面-1" stroke="none" stroke-width="1" fill="none" fill-rule="evenodd">
        <g id="Logo" transform="translate(-912.000000, -144.000000)">
            <g id="line_app_fill" transform="translate(912.000000, 144.000000)">
                 <path d="M24,0 L24,24 L0,24 L0,0 L24,0 Z M12.5934901,23.257841 L12.5819402,23.2595131 L12.5108777,23.2950439 L12.4918791,23.2987469 L12.4918791,23.2987469 L12.4767152,23.2950439 L12.4056548,23.2595131 C12.3958229,23.2563662 12.3870493,23.2590235 12.3821421,23.2649074 L12.3780323,23.275831 L12.360941,23.7031097 L12.3658947,23.7234994 L12.3769048,23.7357139 L12.4804777,23.8096931 L12.4953491,23.8136134 L12.4953491,23.8136134 L12.5071152,23.8096931 L12.6106902,23.7357139 L12.6232938,23.7196733 L12.6232938,23.7196733 L12.6266527,23.7031097 L12.609561,23.275831 C12.6075724,23.2657013 12.6010112,23.2592993 12.5934901,23.257841 L12.5934901,23.257841 Z M12.8583906,23.1452862 L12.8445485,23.1473072 L12.6598443,23.2396597 L12.6498822,23.2499052 L12.6498822,23.2499052 L12.6471943,23.2611114 L12.6650943,23.6906389 L12.6699349,23.7034178 L12.6699349,23.7034178 L12.678386,23.7104931 L12.8793402,23.8032389 C12.8914285,23.8068999 12.9022333,23.8029875 12.9078286,23.7952264 L12.9118235,23.7811639 L12.8776777,23.1665331 C12.8752882,23.1545897 12.8674102,23.1470016 12.8583906,23.1452862 L12.8583906,23.1452862 Z M12.1430473,23.1473072 C12.1332178,23.1423925 12.1221763,23.1452606 12.1156365,23.1525954 L12.1099173,23.1665331 L12.0757714,23.7811639 C12.0751323,23.7926639 12.0828099,23.8018602 12.0926481,23.8045676 L12.108256,23.8032389 L12.3092106,23.7104931 L12.3186497,23.7024347 L12.3186497,23.7024347 L12.3225043,23.6906389 L12.340401,23.2611114 L12.337245,23.2485176 L12.337245,23.2485176 L12.3277531,23.2396597 L12.1430473,23.1473072 Z" id="MingCute" fill-rule="nonzero"></path>
                <path d="M12,3 C17.3444,3 22,6.64261 22,11.5 C22,13.9568 20.6641,16.0791 18.8014,17.7898 C16.9342,19.5047 14.4421,20.9002 11.8714,21.9285 C11.3372,22.1421 10.7227,21.9091 10.4743,21.3875 C10.3703,21.16925 10.34365,20.93525 10.3372125,20.6977875 L10.3327318,20.1628377 C10.3306672,20.1039016 10.3271875,20.045325 10.3214,19.9873 C10.2865,19.6383 10.1947,19.4164 9.82812,19.3524 C5.54868,18.6057 2,15.7391 2,11.5 C2,6.64261 6.65561,3 12,3 Z M14,9.00005 C13.4477,9.00005 13,9.44777 13,10.0001 L13,10.238 L12.2682,9.35987 C11.9987,9.03643 11.5554,8.91645 11.1596,9.05978 C10.7637,9.20311 10.5,9.57903 10.5,10.0001 L10.5,13.0001 C10.5,13.5523 10.9477,14.0001 11.5,14.0001 C12.0523,14.0001 12.5,13.5523 12.5,13.0001 L12.5,12.7621 L13.2318,13.6402 C13.5013,13.9637 13.9446,14.0836 14.3404,13.9403 C14.7363,13.797 15,13.4211 15,13.0001 L15,10.0001 C15,9.44777 14.5523,9.00005 14,9.00005 Z M6,9.00012 C5.44772,9.00012 5,9.44784 5,10.0001 L5,13.0001 C5,13.5524 5.44772,14.0001 6,14.0001 L7,14.0001 C7.55228,14.0001 8,13.5524 8,13.0001 C8,12.4478 7.55228,12.0001 7,12.0001 L7,10.0001 C7,9.44784 6.55228,9.00012 6,9.00012 Z M9,9.00005 C8.48716857,9.00005 8.06449347,9.38609429 8.0067278,9.88346978 L8,10.0001 L8,13.0001 C8,13.5524 8.44772,14.0001 9,14.0001 C9.51283143,14.0001 9.93550653,13.6139867 9.9932722,13.1167055 L10,13.0001 L10,10.0001 C10,9.44777 9.55228,9.00005 9,9.00005 Z M18,9.0001 L16.5,9.0001 C15.98715,9.0001 15.5644908,9.38613566 15.5067275,9.8834779 L15.5,10.0001 L15.5,13.0001 C15.5,13.51295 15.886027,13.9356092 16.3833761,13.9933725 L16.5,14.0001 L18,14.0001 C18.5523,14.0001 19,13.5524 19,13.0001 C19,12.48725 18.613973,12.0645908 18.1166239,12.0068275 L18,12.0001 L17.8662,12.0001 C17.9513,11.853 18,11.6822 18,11.5001 C18,11.363525 17.9726062,11.2333063 17.9230078,11.114675 L17.8662,11.0001 L18,11.0001 C18.5523,11.0001 19,10.5524 19,10.0001 C19,9.48725929 18.613973,9.06459214 18.1166239,9.00682766 L18,9.0001 Z" id="形状" fill="#09244B"></path>
            </g>
        </g>
    </g>
</svg>

<svg xmlns="http://www.w3.org/2000/svg" width="24" height="24"><g fill="none" fill-rule="evenodd"><path d="M24 0v24H0V0h24ZM12.593 23.258l-.011.002-.071.035-.02.004-.014-.004-.071-.035c-.01-.004-.019-.001-.024.005l-.004.01-.017.428.005.02.01.013.104.074.015.004.012-.004.104-.074.012-.016.004-.017-.017-.427c-.002-.01-.009-.017-.017-.018Zm.265-.113-.013.002-.185.093-.01.01-.003.011.018.43.005.012.008.007.201.093c.012.004.023 0 .029-.008l.004-.014-.034-.614c-.003-.012-.01-.02-.02-.022Zm-.715.002a.023.023 0 0 0-.027.006l-.006.014-.034.614c0 .012.007.02.017.024l.015-.002.201-.093.01-.008.004-.011.017-.43-.003-.012-.01-.01-.184-.092Z"/><path fill="#09244B" d="M12 3c5.344 0 10 3.643 10 8.5 0 2.457-1.336 4.58-3.199 6.29-1.867 1.715-4.359 3.11-6.93 4.139a1.096 1.096 0 0 1-1.397-.541c-.104-.219-.13-.453-.137-.69l-.004-.535a2.734 2.734 0 0 0-.012-.176c-.034-.349-.126-.57-.493-.635C5.548 18.606 2 15.74 2 11.5 2 6.643 6.656 3 12 3Zm2 6a1 1 0 0 0-1 1v.238l-.732-.878A1 1 0 0 0 10.5 10v3a1 1 0 0 0 2 0v-.238l.732.878A1 1 0 0 0 15 13v-3a1 1 0 0 0-1-1ZM6 9a1 1 0 0 0-1 1v3a1 1 0 0 0 1 1h1a1 1 0 1 0 0-2v-2a1 1 0 0 0-1-1Zm3 0a1 1 0 0 0-.993.883L8 10v3a1 1 0 0 0 1.993.117L10 13v-3a1 1 0 0 0-1-1Zm9 0h-1.5a1 1 0 0 0-.993.883L15.5 10v3a1 1 0 0 0 .883.993L16.5 14H18a1 1 0 0 0 .117-1.993L18 12h-.134a.995.995 0 0 0 .057-.885L17.866 11H18a1 1 0 0 0 .117-1.993L18 9Z"/></g></svg>
